src/24/receipt-scroll.svg

<svg xmlns="http://www.w3.org/2000/svg" width="24" height="24" viewBox="0 0 24 24">
  <path d="M23,0H7C6.447,0,6,0.447,6,1v16H3c-1.654,0-3,1.346-3,3v4h14v-3.583C14,19.609,14.645,19,15.5,19 c0.723,0,1.5,0.47,1.5,1.5c0,1.93,1.57,3.5,3.5,3.5s3.5-1.57,3.5-3.5V1C24,0.447,23.553,0,23,0z M12,20.417V22H2v-2 c0-0.552,0.448-1,1-1h9.304C12.108,19.43,12,19.909,12,20.417z M20,13H10v-2h10V13z M20,7H10V5h10V7z" />
</svg>

<svg xmlns="http://www.w3.org/2000/svg" width="24" height="24" viewBox="0 0 24 24">
  <path d="M23,0 L7,0 C6.447,0 6,0.447 6,1 L6,17 L3,17 C1.346,17 0,18.346 0,20 L0,24 L14,24 L14,20.417 C14,19.609 14.645,19 15.5,19 C16.223,19 17,19.47 17,20.5 C17,22.43 18.57,24 20.5,24 C22.43,24 24,22.43 24,20.5 L24,1 C24,0.447 23.553,0 23,0 Z M12,20.417 L12,22 L2,22 L2,20 C2,19.448 2.448,19 3,19 L12.304,19 C12.108,19.43 12,19.909 12,20.417 Z M20,13 L10,13 L10,11 L20,11 L20,13 Z M20,7 L10,7 L10,5 L20,5 L20,7 Z"/>
</svg>
